X:287
T: Ca' the Ewes to the Knows
T: Call the Ewes to the Knowes
N: O'Farrell's Pocket Companion v.3 (Sky ed. p.130)
N: "Scotch"
M: 2/4
L: 1/8
R: march
Q: 180
K: Bm
z| E>F B2| A<F A2| F>E Dd| c>d e2|
f>B B>B| A>d F2| E2 F>A| B2B :|
z| E>F B>B| A>F A2| F>E D>d| c>d e2|
f<f B<B>B| A>d F2| E>E F>A| B2B :|
